X:1
T:Mr. Gordon Glennie (Barns, Strathdon)
T:Mr. Gordon Glennie (Barns, Strathdon)
T:Alexander Walker
C:Alexander Walker
L:1/8
M:4/4
K:G
V:1 treble 
V:1
 D | G2 B>G (E<G) D2 | G2 B>G c<(AA>)B | G2 B>G B<d e2 | B<dg>d B<G G :| d | ga/b/ a>g e>g d2 | %7
 (cd/e/) d>B c<AA>a | (ga/b/) a>g e>g d2 | c>ed>c B<GG>d | b>ga>g e>g d2 | cd/e/ d>B c<(AA>)c | %12
 B<Gd>B c<Aa>g | f>de>f g<G G || %14

